X:1
T:E se mai l'empio
T:Benedetto Ferrari
T:Source : Musiche Varie a voce sola---Libro primo---Venetia---B.Magni---1633. Editor : André Vierendeels (31/12/16).
T:Notes : Original clefs : C4, F4 Editorial accidentals above the staff Figures in BC are notated in original print See also "Non fia oiu ver"(B.Ferrari) with ca. same BC 
T:E se mai l'empio
T:©
T:©
T:©
C:Benedetto Ferrari
Z:©
%%score 1 2
L:1/8
Q:1/4=92
M:4/4
K:C
V:1 treble-8 nm="Tenor" snm="T"
V:2 bass nm="MusicXML Part"
V:1
 z2 EE AB/c/ de/f/ | ^GA/B/ E/B/^c/d/ e4 | f2 A4 ^G2 | A4 z/ A/B/c/ d/A/d/c/ | %4
w: E se mai _ _ _ _ _|_ _ _ _ _ _ _ _|* l'em- pio|sen, l'em- * * * * * *|
 B/d/e/f/ g/d/g/f/ e3 d | d4 z4 | z Gc_B A/E/F/G/ A/B/c/A/ | d/c/d/e/ f_B/A/ G3 F | F4 z4 | %9
w: * * * * * * * * * pio|sen,|fia che sor mon- * * * * * * *|* * * * * ti lo sde- gno|mio,|
 z D/E/ FA/B/ c/G/A/B/ c/d/e/f/ | gc z d c<B c<A | B2 z e g/f/e/d/ cB | A4 GGFE | D4 z ABc | %14
w: sue fi- gu- r'e ri- go- * * * * * * *|* ri n'an- dro _ _ _|_ n'an- dro _ _ _ _ di|Sci- thia ad' a- brac-|ciar, ad' a- brac-|
 d/A/B/^c/ d/A/B/c/ ^F/B/c/d/ e/c/d/e/ | ^F/d/e/^f/ g/e/f/g/ c/E/F/G/ A/B/c/d/ | %16
w: ciar _ _ _ _ _ _ _ _ _ _ _ _ _ _ _|_ _ _ _ _ _ _ _ _ _ _ _ _ _ _ _|
 e/B/c/d/ e/f/g/e/ f4- | f4- f2 d2 | d4 c4 | z4 z/ G/A/B/ c/B/d/c/ | Bc d2- dAAA | %21
w: |* * fu'i|mon- ti,|n'an- * * * * * *|dro di Sci- * thi'ad' a- brac-|
 A/G/A/B/ A/B/c/A/ B/A/B/c/ B/c/d/B/ | c/B/A/B/ c/d/e/c/ f/e/d/e/ f/g/a- | a3 A A4- | A4 ^G4 | %25
w: ciar _ _ _ _ _ _ _ _ _ _ _ _ _ _ _|_ _ _ _ _ _ _ _ _ _ _ _ _ _ _|* fu'i mon-|* ti.|
 A8 |] %26
w: _|
V:2
"^BC""^-natural" A,6 D,2 |"^-natural" E,6 ^C,2 | D,2 F,2 E,4 |"^#" A,,4 ^F,4 | G,2 _B,2 A,4 | %5
"^4#" D,3 E, F,2 ^F,2 |"^b" G,2 E,2 F,2 A,,2 |"^4 3" _B,,2 F,,2 C,4 | F,,2 F,4 E,2 | %9
"^7 6" D,4 C,2 C,2- | C,2 D,2 E,2 ^F,2 | G,3 A,, B,,2 C,2 |"^4#" D,4 G,,2 G,2- | G,2 F,2 E,4 | %14
"^-natural" D,2 D,4 C,2 | B,,4 A,,2 A,2- | A,2 G,4 F,2- | F,2 G,2 A,2 F,2 |"^4 3" G,4 C,2 C,2- | %19
 C,2 B,,2 A,,4 | G,,4 F,,4 | E,,4 D,,4 | C,,4 D,,3 E,, | F,,2 D,,2 E,,4- | E,,4 E,,4 | A,,8 |] %26

